X: 21637
T: Killavil, The
R: jig
M: 6/8
K: Edorian
|:BEE BEE|Bdf edB|BAF ~F3|DFA dAF|
BEE BEE|Bdf edB|BAB dAF|FED E3:|
|:Bef gfe|~f3 edB|BAF ~F3|DFA dAF|
[1 ~B3 gfe|~f3 edB|BAB dAF|~E3 E3:|
[2 ~B3 gfe|faf edB|BAB dAF|FED E3||

